!!!COM:	Johannes Ockeghem
!!!CDT:	~1425-1497/02/06
!!!OPR:	Missa L'homme arm&eacute;
!!!ONM:	5
!!!OTL:	Agnus Dei
!!!AGN:	Mass; Agnus Dei
!!!SCT:	Ock1008e
!!!SCA:	Ock1008e
!!!voices:	4
!!!voices-OPR:	4
**kern	**text	**kern	**text	**kern	**text	**kern	**text
*staff4	*staff4	*staff3	*staff3	*staff2	*staff2	*staff1	*staff1
*Ivox	*	*Ivox	*	*Ivox	*	*Ivox	*
*I"Tenor	*	*I"Bassus	*	*I"Altus	*	*I"Superius	*
*I'T	*	*I'B	*	*I'A	*	*I'S	*
*>[A,B,C]	*>[A,B,C]	*>[A,B,C]	*>[A,B,C]	*>[A,B,C]	*>[A,B,C]	*>[A,B,C]	*>[A,B,C]
*>A	*>A	*>A	*>A	*>A	*>A	*>A	*>A
*clefF4	*	*clefF4	*	*clefGv2	*	*clefG2	*
*k[]	*	*k[]	*	*k[]	*	*k[]	*
*M3/1	*	*M3/1	*	*M3/1	*	*M3/1	*
*met(C.)	*	*met(O)	*	*met(O)	*	*met(O)	*
!!primary-mensuration: met(O)
=1-	=1-	=1-	=1-	=1-	=1-	=1-	=1-
!LO:TX:Z=8:t=Descendendo in dyapason	!	!	!	!	!	!	!
!!section: Agnus Dei I
!!!OMD: Agnus Dei I
*rscale:1/2	*	*	*	*	*	*	*
!LO:N:vis=0.	!	!	!	!	!	!	!
0.r	.	0d	A-	0G	A-	0g	A-
.	.	1D	.	1F	.	1a	.
=2-	=2	=2	=2	=2	=2	=2	=2
0.ryy	.	1E	-gnus	1G	-gnus	1g	-gnus
.	.	0F	De-	0A	De-	1.cc	De-
.	.	.	.	.	.	2b\	.
=3	=3	=3	=3	=3	=3	=3	=3
!LO:N:vis=0.	!	!	!	!	!	!	!
0.r	.	1G	.	1G	.	1b	.
.	.	0C	.	0c	.	2g/	.
.	.	.	.	.	.	1g	.
.	.	.	.	.	.	2e/	.
=4-	=4	=4	=4	=4	=4	=4	=4
0.ryy	.	2G\	.	1B	.	[0.d	-i,
.	.	2A\	.	.	.	.	.
.	.	1.B	.	2G/	.	.	.
.	.	.	.	1G	.	.	.
.	.	2G\	.	4F/	.	.	.
.	.	.	.	4E/	.	.	.
=5	=5	=5	=5	=5	=5	=5	=5
0GG	L'hom-	1.G	.	0D	-i,	0d]	.
.	.	4F\	.	.	.	.	.
.	.	4E\	.	.	.	.	.
1GG	-me	1D	-i,	[1B-	A-	1r	.
=6-	=6	=6	=6	=6	=6	=6	=6
0C	l'hom-	1r	.	2B-\]	.	0.r	.
.	.	.	.	2A/	.	.	.
.	.	1.E	A-	1.A	-gnus	.	.
1C	-me	.	.	.	.	.	.
.	.	2D\	.	2G/	.	.	.
=7	=7	=7	=7	=7	=7	=7	=7
1BB	l'hom-	1D	-gnus	2G/	De-	0.r	.
.	.	.	.	4F/	.	.	.
.	.	.	.	4G/	.	.	.
0AA	-me'ar-	1.C	De-	3%2A	.	.	.
.	.	.	.	3%2E	.	.	.
.	.	.	.	3%2F#i	.	.	.
.	.	4BB/	.	.	.	.	.
.	.	4C/	.	.	.	.	.
=8-	=8	=8	=8	=8	=8	=8	=8
0.GG	-m&eacute;,	0D	-i,	1.G	-i,	1.B	qui
.	.	.	.	2A/	.	2c/	.
.	.	1G	qui	1B	qui	1d	.
=9	=9	=9	=9	=9	=9	=9	=9
!LO:N:vis=0.	!	!	!	!	!	!	!
0.r	.	1C	tol-	1c	tol-	1e	tol-
.	.	2.G\	.	1B	.	2d/	.
.	.	.	.	.	.	1g	.
.	.	4F\	.	.	.	.	.
.	.	1E	.	1c	.	.	.
.	.	.	.	.	.	2e/	.
=10-	=10	=10	=10	=10	=10	=10	=10
0.ryy	.	1D	.	[0.d	-lis	2.f/	.
.	.	.	.	.	.	4g/	.
.	.	2F\	.	.	.	2a/	.
.	.	1G	.	.	.	1b-i	.
.	.	2F\	.	.	.	2a/	.
=11	=11	=11	=11	=11	=11	=11	=11
!LO:N:vis=0.	!	!	!	!	!	!	!
0.r	.	2G\	.	1d]	.	2g/	.
.	.	2D\	.	.	.	2f/	.
.	.	1A	.	1c	pec-	1e	-lis
.	.	2B-\	-lis	1d	.	1d	pec-
.	.	2G\	.	.	.	.	.
=12-	=12	=12	=12	=12	=12	=12	=12
0.ryy	.	2r	.	1A	-ca-	2.f/	-ca-
.	.	2.F\	pec-	.	.	.	.
.	.	.	.	.	.	4g/	.
.	.	.	.	2d\	.	4a/	.
.	.	4E\	.	.	.	4b\	.
.	.	2C/	.	2e\	.	2.cc\	.
.	.	1E	.	2c\	.	.	.
.	.	.	.	.	.	4b\	.
.	.	.	.	2B\	.	2g/	.
=13	=13	=13	=13	=13	=13	=13	=13
1D	l'hom-	2F\	-ca-	1.d	.	2f/	-ta
.	.	2D\	-ta	.	.	2.b-i\	mun-
1D	-me'ar-	1F	mun-	.	.	.	.
.	.	.	.	.	.	4a/	.
.	.	.	.	2c\	.	2a/	.
1GG	-m&eacute;,	1G	.	1B-i	-ta	2b-i\	.
.	.	.	.	.	.	2g/	.
=14-	=14	=14	=14	=14	=14	=14	=14
1r	.	0D	-di,	1.A	mun-	1a	-di,
1D	l'hom-	.	.	.	.	1r	.
.	.	.	.	2F/	.	.	.
1D	-me'ar-	1r	.	1F	-di,	1a	mi-
=15	=15	=15	=15	=15	=15	=15	=15
1D	-m&eacute;	1F	mi-	1r	.	1b	-se-
0C	doibt	0E	-se-	1G	mi-	2.cc\	-re-
.	.	.	.	.	.	4b\	.
.	.	.	.	1c	.	2a/	.
.	.	.	.	.	.	2g/	-re
=16-	=16	=16	=16	=16	=16	=16	=16
1BB	en	2D\	-re-	1d	.	2.g/	no-
.	.	2G\	-re	.	.	.	.
.	.	.	.	.	.	4e/	.
0AA	doub-	2A\	no-	2c\	-se-	2.f/	.
.	.	2.F#i\	.	1c	-re-	.	.
.	.	.	.	.	.	4g/	.
.	.	.	.	.	.	1a	-bis.
.	.	4E\	.	.	.	.	.
.	.	2F#i\	.	2A/	.	.	.
=17	=17	=17	=17	=17	=17	=17	=17
0GG	-ter,	1.G	.	1B	-re	2r	.
.	.	.	.	.	.	1d	mi-
.	.	.	.	1G	mi-	.	.
.	.	2E\	.	.	.	2.g/	.
1r	.	1D	-bis.	1A	-se-	.	.
.	.	.	.	.	.	4e/	.
.	.	.	.	.	.	2f/	-se-
=18-	=18	=18	=18	=18	=18	=18	=18
0.r	.	2G\	mi-	2B\	-re-	2g/	-re-
.	.	2F\	-se-	2A/	.	2.a/	.
.	.	1A	-re-	1c	.	.	.
.	.	.	.	.	.	8g/L	.
.	.	.	.	.	.	8f/J	.
.	.	.	.	.	.	4e/	.
.	.	.	.	.	.	4d/	.
.	.	2D\	.	2d\	.	2f/	.
.	.	2G\	.	2e\	.	2g/	.
=19	=19	=19	=19	=19	=19	=19	=19
!LO:N:vis=0.	!	!	!	!	!	!	!
0.r	.	2F\	.	2f\	.	2a/	.
.	.	2.G\	.	1d	.	1b-	.
.	.	4D\	.	.	.	.	.
.	.	2F\	.	2c\	.	2a/	.
.	.	1G	.	1B-i	.	2.g/	.
.	.	.	.	.	.	4e/	.
=20-	=20	=20	=20	=20	=20	=20	=20
0.ryy	.	2D\	.	1A	.	2.f/	.
.	.	1F	.	.	.	.	.
.	.	.	.	.	.	4g/	.
.	.	.	.	1c	.	2a/	.
.	.	2E\	.	.	.	1g	-re
.	.	1C	-re	1e	-re	.	.
.	.	.	.	.	.	2cc\	no-
=21	=21	=21	=21	=21	=21	=21	=21
1D	doibt	1F	mi-	2.d\	no-	2b\	.
.	.	.	.	.	.	1a	.
.	.	.	.	4c\	.	.	.
1D	on	2F\	-se-	2d\	.	.	.
.	.	1D	-re-	2B\	.	2g/	.
1D	doub-	.	.	1A	.	4f#i/	.
.	.	.	.	.	.	2f#i/	.
.	.	2F\	-re	.	.	.	.
.	.	.	.	.	.	4e/	.
=22-	=22	=22	=22	=22	=22	=22	=22
!LO:N:vis=00	!	!	!	!	!	!	!
[0.GGl	.	2.E\	no-	[0.Gl	-bis.	[0.gl	-bis.
.	.	4D\	.	.	.	.	.
.	.	0D	-bis.	.	.	.	.
=23	=23	=23	=23	=23	=23	=23	=23
0.GG]	.	0.dl	.	0.G]	.	0.g]	.
!!LO:LB:i:g=z
*rscale:1	*	*	*	*	*	*	*
=24||	=24||	=24||	=24||	=24||	=24||	=24||	=24||
*>B	*>B	*>B	*>B	*>B	*>B	*>B	*>B
*tacet	*	*	*	*	*	*	*
*tacet	*	*	*	*	*	*	*
*clefF4	*	*clefF4	*	*clefGv2	*	*clefG2	*
*k[]	*	*k[]	*	*k[]	*	*k[]	*
*M3/1	*	*M3/1	*	*M3/1	*	*M3/1	*
*met(C.)	*	*met(O)	*	*met(O)	*	*met(O)	*
!!primary-mensuration: met(O)
!!section: Agnus Dei II
!!!OMD: Agnus Dei II
0.r	.	0.r	.	1G	A-	0.r	.
.	.	.	.	2d\	.	.	.
.	.	.	.	1d	-gnus	.	.
.	.	.	.	2c\	.	.	.
=25	=25	=25	=25	=25	=25	=25	=25
0.r	.	0.r	.	2.d\	De-	1d	A-
.	.	.	.	8c\L	.	.	.
.	.	.	.	8B\J	.	.	.
.	.	.	.	2A/	.	2a/	.
.	.	.	.	4B\	.	1a	-gnus
.	.	.	.	2c\	.	.	.
.	.	.	.	4d\	.	.	.
.	.	.	.	2B\	.	2g/	.
=26	=26	=26	=26	=26	=26	=26	=26
0.r	.	0.r	.	1.A	-i,	1a	De-
.	.	.	.	.	.	2f/	.
.	.	.	.	2B\	A-	2g/	.
.	.	.	.	2c\	.	2e/	.
.	.	.	.	2B\	-gnus	[2d/	.
=27	=27	=27	=27	=27	=27	=27	=27
0.r	.	0.r	.	1d	De-	2d/]	.
.	.	.	.	.	.	2f/	.
.	.	.	.	1G	.	2g/	.
.	.	.	.	.	.	2b-i\	.
.	.	.	.	2F/	.	2.a/	.
.	.	.	.	[2c\	.	.	.
.	.	.	.	.	.	4g/	.
=28	=28	=28	=28	=28	=28	=28	=28
0.r	.	0.r	.	2c\]	.	2.cc\	.
.	.	.	.	2A/	.	.	.
.	.	.	.	.	.	4a/	.
.	.	.	.	2G/	.	2b\	.
.	.	.	.	4E/	.	2.cc\	.
.	.	.	.	2F/	.	.	.
.	.	.	.	4G/	.	4b\	.
.	.	.	.	4A/	.	4a/	.
.	.	.	.	4B\	.	8g/L	.
.	.	.	.	.	.	8f/J	.
=29	=29	=29	=29	=29	=29	=29	=29
0.r	.	0.r	.	4c\	.	4e/	.
.	.	.	.	4A/	.	2a/	.
.	.	.	.	4B\	.	.	.
.	.	.	.	2d\	.	4f/	.
.	.	.	.	.	.	4e/	.
.	.	.	.	4c\	.	4g/	.
.	.	.	.	4d\	.	4f/	.
.	.	.	.	4G/	.	2d/	.
.	.	.	.	4B\	.	.	.
.	.	.	.	4c\	.	2g/	.
.	.	.	.	2A/	.	.	.
.	.	.	.	.	.	4f#i/	.
=30	=30	=30	=30	=30	=30	=30	=30
0.r	.	1r	.	0G	-i,	0g	-i,
.	.	2GG/	qui	.	.	.	.
.	.	2C/	.	.	.	.	.
.	.	2D\	.	2r	.	1r	.
.	.	[2F\	tol-	2F/	qui	.	.
=31	=31	=31	=31	=31	=31	=31	=31
0.r	.	4F\]	.	2A/	.	0.r	.
.	.	4E\	.	.	.	.	.
.	.	2D\	.	2B\	.	.	.
.	.	2C/	.	2.c\	tol-	.	.
.	.	2E\	.	.	.	.	.
.	.	.	.	4B\	.	.	.
.	.	2F\	.	2A/	.	.	.
.	.	[2G\	.	2G/	.	.	.
=32	=32	=32	=32	=32	=32	=32	=32
0.r	.	2G\]	.	2B\	.	0.r	.
.	.	2E\	.	2c\	.	.	.
.	.	2D\	.	1d	.	.	.
.	.	1F	.	.	.	.	.
.	.	.	.	2c\	.	.	.
.	.	2G\	.	2B\	.	.	.
=33	=33	=33	=33	=33	=33	=33	=33
0.r	.	2A\	.	1A	-lis	0.r	.
.	.	2F\	.	.	.	.	.
.	.	1G	-lis	2r	.	.	.
.	.	.	.	2G/	pec-	.	.
.	.	2C/	pec-	2A/	.	.	.
.	.	2D\	.	2B\	.	.	.
=34	=34	=34	=34	=34	=34	=34	=34
0.r	.	2E\	.	2.c\	-ca-	0.r	.
.	.	1F	-ca-	.	.	.	.
.	.	.	.	4B\	.	.	.
.	.	.	.	2A/	.	.	.
.	.	2E\	.	2G/	.	.	.
.	.	2D\	.	2F/	.	.	.
.	.	2C/	.	[2A/	.	.	.
=35	=35	=35	=35	=35	=35	=35	=35
0.r	.	1D	.	2A/]	.	0.r	.
.	.	.	.	1D	-ta	.	.
.	.	1GG	-ta	.	.	.	.
.	.	.	.	2B\	pec-	.	.
.	.	2E\	pec-	2c\	.	.	.
.	.	2F\	.	[2d\	-ca-	.	.
=36	=36	=36	=36	=36	=36	=36	=36
0.r	.	1G	-ca-	2d\]	.	0.r	.
.	.	.	.	2B\	.	.	.
.	.	2F\	.	1A	.	.	.
.	.	1D	.	.	.	.	.
.	.	.	.	2F/	.	.	.
.	.	2BB/	.	2G/	.	.	.
=37	=37	=37	=37	=37	=37	=37	=37
0.r	.	2C/	.	2A/	.	0.r	.
.	.	2D\	.	2B\	.	.	.
.	.	1E	-ta	2G/	-ta	.	.
.	.	.	.	1c	mun-	.	.
.	.	1AA	mun-	.	.	.	.
.	.	.	.	2A/	.	.	.
=38	=38	=38	=38	=38	=38	=38	=38
0.r	.	2GG/	.	4B\	.	0.r	.
.	.	.	.	2d\	.	.	.
.	.	1D	.	.	.	.	.
.	.	.	.	4c\	.	.	.
.	.	.	.	4B\	.	.	.
.	.	.	.	4A/	.	.	.
.	.	2C/	.	8A/L	.	.	.
.	.	.	.	8G/J	.	.	.
.	.	.	.	4A/	.	.	.
.	.	1BB	.	4B\	.	.	.
.	.	.	.	2G#i/	.	.	.
.	.	.	.	4F#i/	.	.	.
=39	=39	=39	=39	=39	=39	=39	=39
0.r	.	0.AA	-di,	0A	-di,	1r	.
.	.	.	.	.	.	1r	.
.	.	.	.	2r	.	1f	mi-
.	.	.	.	2A/	mi-	.	.
=40	=40	=40	=40	=40	=40	=40	=40
0.r	.	1r	.	2B\	.	2g/	-se-
.	.	.	.	2A/	-se-	1a	-re-
.	.	1r	.	1c	-re-	.	.
.	.	.	.	.	.	1g	.
.	.	1C	mi-	1e	.	.	.
.	.	.	.	.	.	2cc\	.
=41	=41	=41	=41	=41	=41	=41	=41
0.r	.	1D	-se-	1d	-re	2b\	.
.	.	.	.	.	.	1a	.
.	.	1E	-re-	2c\	no-	.	.
.	.	.	.	2B\	.	2g/	.
.	.	1D	-re	2.d\	.	2f/	.
.	.	.	.	.	.	[2a/	.
.	.	.	.	4c\	.	.	.
=42	=42	=42	=42	=42	=42	=42	=42
0.r	.	0.r	.	4A/	.	4a/]	.
.	.	.	.	4B\	.	4g/	.
.	.	.	.	2.c\	.	4e/	.
.	.	.	.	.	.	4f/	.
.	.	.	.	.	.	2.g/	.
.	.	.	.	2B-i\	.	.	.
.	.	.	.	4A/	.	2f/	.
.	.	.	.	4F/	.	.	.
.	.	.	.	2c\	.	4e/	.
.	.	.	.	.	.	2d/	.
.	.	.	.	4Bni\	.	.	.
=43	=43	=43	=43	=43	=43	=43	=43
0.r	.	1C	no-	1c	-bis.	2c/	-re
.	.	.	.	.	.	2.e/	no-
.	.	1D	.	2r	.	.	.
.	.	.	.	.	.	4d/	.
.	.	.	.	2A/	no-	2f/	.
.	.	2BB-i/	.	2B-i\	.	2g/	.
.	.	[2F\	.	2A/	.	[2a/	.
=44	=44	=44	=44	=44	=44	=44	=44
0.r	.	4F\]	.	2c\	.	4a/]	.
.	.	4E\	.	.	.	4g/	.
.	.	2C/	.	2e\	.	2cc\	.
.	.	4G\	.	1d	.	4b\	.
.	.	2F\	.	.	.	2a/	.
.	.	4D\	.	.	.	4f/	.
.	.	2E\	.	2c\	.	4g/	.
.	.	.	.	.	.	4e/	.
.	.	2D\	-bis.	2d\	.	4f/	.
.	.	.	.	.	.	[4d/	.
=45	=45	=45	=45	=45	=45	=45	=45
0.r	.	2r	.	4B\	.	4d/]	.
.	.	.	.	4G/	.	2g/	.
.	.	2D\	no-	2A/	-bis.	.	.
.	.	.	.	.	.	4f/	.
.	.	2C/	.	4r	.	4e/	.
.	.	.	.	2G/	no-	4c/	.
.	.	4GG/	.	.	.	4B/	.
.	.	2AA/	.	2C/	.	4c/	.
.	.	.	.	.	.	4e/	.
.	.	2BB-i/	.	4G/	.	2d/	.
.	.	.	.	4F/	.	.	.
.	.	4GG/	.	4G/	.	4B/	.
=46	=46	=46	=46	=46	=46	=46	=46
0.r	.	4FF/	.	4A/	.	4c/	.
.	.	4GG/	.	2G/	.	4G/	.
.	.	2D\	.	.	.	2A/	.
.	.	.	.	4F#i/	.	.	.
.	.	0GGl	-bis.	0Gl	-bis.	0Gl	-bis.
*xtacet	*	*	*	*	*	*	*
!!LO:LB:i:g=z
=47||	=47||	=47||	=47||	=47||	=47||	=47||	=47||
*>C	*>C	*>C	*>C	*>C	*>C	*>C	*>C
*clefF4	*	*clefF4	*	*clefGv2	*	*clefG2	*
*k[b-]	*	*k[b-]	*	*k[b-]	*	*k[b-]	*
*M2/1	*	*M2/1	*	*M2/1	*	*M2/1	*
*met(C.)	*	*met(C|)	*	*met(C|)	*	*met(C|)	*
!!primary-mensuration: met(C|)
*rscale:1/4	*	*	*	*	*	*	*
!!section: Agnus Dei III
!!!OMD: Agnus Dei III
!LO:N:vis=1	!	!	!	!	!	!	!
[y0G	-On	0r	.	1.G	A-	0r	.
.	.	.	.	2A/	.	.	.
=48-	=48	=48	=48	=48	=48	=48	=48
0G]yy	.	0r	.	2B-\	.	0r	.
.	.	.	.	4c\	.	.	.
.	.	.	.	4d\	.	.	.
.	.	.	.	2e-\	.	.	.
.	.	.	.	[2d\	.	.	.
=49-	=49	=49	=49	=49	=49	=49	=49
0G	a	0r	.	2d\]	.	0r	.
.	.	.	.	2c\	.	.	.
.	.	.	.	2B-\	.	.	.
.	.	.	.	2G/	-gnus	.	.
=50-	=50	=50	=50	=50	=50	=50	=50
!LO:N:vis=1	!	!	!	!	!	!	!
[y0F	fait	0r	.	2.A/	De-	0r	.
.	.	.	.	4B-\	.	.	.
.	.	.	.	2c\	.	.	.
.	.	.	.	2d\	.	.	.
=51-	=51	=51	=51	=51	=51	=51	=51
0F]yy	.	0r	.	2c\	.	0r	.
.	.	.	.	1d	.	.	.
.	.	.	.	4c\	.	.	.
.	.	.	.	4B-\	.	.	.
=52-	=52	=52	=52	=52	=52	=52	=52
0F	par-	0r	.	2A/	.	0r	.
.	.	.	.	2G/	.	.	.
.	.	.	.	2A/	.	.	.
.	.	.	.	2c\	.	.	.
=53	=53	=53	=53	=53	=53	=53	=53
!LO:N:vis=1	!	!	!	!	!	!	!
[y0G	-tout	0r	.	2B-\	.	0r	.
.	.	.	.	2e-\	.	.	.
.	.	.	.	2d\	.	.	.
.	.	.	.	[2g\	.	.	.
=54-	=54	=54	=54	=54	=54	=54	=54
0G]yy	.	0r	.	4g\]	.	0r	.
.	.	.	.	4f\	.	.	.
.	.	.	.	4e-i\	.	.	.
.	.	.	.	4d\	.	.	.
.	.	.	.	2e-i\	.	.	.
.	.	.	.	[2d\	.	.	.
=55-	=55	=55	=55	=55	=55	=55	=55
0E-i	cri-	0r	.	2d\]	.	0r	.
.	.	.	.	2B-\	.	.	.
.	.	.	.	2.c\	.	.	.
.	.	.	.	4B-\	.	.	.
=56-	=56	=56	=56	=56	=56	=56	=56
!LO:N:vis=1	!	!	!	!	!	!	!
[y0D	-er,	0r	.	0d	-i,	1r	.
.	.	.	.	.	.	2r	.
.	.	.	.	.	.	2d/	qui
=57-	=57	=57	=57	=57	=57	=57	=57
0D]yy	.	0r	.	2r	.	2f/	tol-
.	.	.	.	2B-\	qui	2g/	.
.	.	.	.	2A/	tol-	2a/	.
.	.	.	.	2d\	.	2b-\	.
=58-	=58	=58	=58	=58	=58	=58	=58
0r	.	0r	.	2e\	.	2g/	.
.	.	.	.	2c\	.	2.cc\	.
.	.	.	.	1f	.	.	.
.	.	.	.	.	.	4b-\	.
.	.	.	.	.	.	4a/	.
.	.	.	.	.	.	4g/	.
=59	=59	=59	=59	=59	=59	=59	=59
!LO:N:vis=1.	!	!	!	!	!	!	!
0r	.	0r	.	1e	.	2.g/	.
.	.	.	.	.	.	4e/	.
.	.	.	.	[1d	.	2.f/	.
.	.	.	.	.	.	4g/	.
=60-	=60	=60	=60	=60	=60	=60	=60
0ryy	.	0r	.	2d\]	.	2a/	.
.	.	.	.	2c\	.	2.a/	.
.	.	.	.	1A	.	.	.
.	.	.	.	.	.	4b-\	.
.	.	.	.	.	.	[2cc\	.
=61-	=61	=61	=61	=61	=61	=61	=61
0ryy	.	0r	.	1c	.	4cc\]	.
.	.	.	.	.	.	4b-\	.
.	.	.	.	.	.	2g/	.
.	.	.	.	1d	.	2b-\	.
.	.	.	.	.	.	[2a/	.
=62-	=62	=62	=62	=62	=62	=62	=62
!LO:N:vis=1.	!	!	!	!	!	!	!
0r	.	0r	.	1G	.	4a/]	.
.	.	.	.	.	.	4b-\	.
.	.	.	.	.	.	1g	.
.	.	.	.	1A	.	.	.
.	.	.	.	.	.	2f#i/	.
=63-	=63	=63	=63	=63	=63	=63	=63
0ryy	.	0r	.	0G	-lis,	1g	.
.	.	.	.	.	.	2f/	.
.	.	.	.	.	.	[2e/	.
=64-	=64	=64	=64	=64	=64	=64	=64
0ryy	.	0r	.	1G	qui	2e/]	.
.	.	.	.	.	.	4d/	.
.	.	.	.	.	.	4c/	.
.	.	.	.	[1G	tol-	2Bni/	.
.	.	.	.	.	.	[2e/	.
=65	=65	=65	=65	=65	=65	=65	=65
!LO:N:vis=1.	!	!	!	!	!	!	!
0r	.	0r	.	1G]	.	4e/]	.
.	.	.	.	.	.	4d/	.
.	.	.	.	.	.	2Bni/	.
.	.	.	.	1F#i	.	2A/	.
.	.	.	.	.	.	2d/	.
=66-	=66	=66	=66	=66	=66	=66	=66
0ryy	.	1r	.	0G	-lis,	0G	-lis
.	.	2r	.	.	.	.	.
.	.	[2G\	pec-	.	.	.	.
=67-	=67	=67	=67	=67	=67	=67	=67
0ryy	.	2G\]	.	0r	.	0r	.
.	.	2E\	.	.	.	.	.
.	.	2D\	.	.	.	.	.
.	.	2G\	.	.	.	.	.
=68-	=68	=68	=68	=68	=68	=68	=68
!LO:N:vis=1	!	!	!	!	!	!	!
[y0G	que	1C	-ca-	0r	.	0r	.
.	.	2BB-/	.	.	.	.	.
.	.	[2C/	.	.	.	.	.
=69-	=69	=69	=69	=69	=69	=69	=69
0G]yy	.	4C/]	.	0r	.	0r	.
.	.	4D\	.	.	.	.	.
.	.	1E-i	.	.	.	.	.
.	.	[2C/	.	.	.	.	.
=70-	=70	=70	=70	=70	=70	=70	=70
0G	chas-	4C/]	.	0r	.	0r	.
.	.	4D\	.	.	.	.	.
.	.	2.E-i\	.	.	.	.	.
.	.	4F\	.	.	.	.	.
.	.	2G\	.	.	.	.	.
=71	=71	=71	=71	=71	=71	=71	=71
!LO:N:vis=1	!	!	!	!	!	!	!
[y0F	-cun	2D\	.	0r	.	0r	.
.	.	4C/	.	.	.	.	.
.	.	4D\	.	.	.	.	.
.	.	4E-i\	.	.	.	.	.
.	.	4D\	.	.	.	.	.
.	.	4C/	.	.	.	.	.
.	.	4BB-/	.	.	.	.	.
=72-	=72	=72	=72	=72	=72	=72	=72
0F]yy	.	2AA/	.	0r	.	0r	.
.	.	2BB-/	.	.	.	.	.
.	.	2C/	.	.	.	.	.
.	.	[2D\	.	.	.	.	.
=73-	=73	=73	=73	=73	=73	=73	=73
0F	se	2D\]	.	0r	.	0r	.
.	.	4C/	.	.	.	.	.
.	.	4BB-/	.	.	.	.	.
.	.	2C/	.	.	.	.	.
.	.	2D\	.	.	.	.	.
=74-	=74	=74	=74	=74	=74	=74	=74
!LO:N:vis=1	!	!	!	!	!	!	!
[y0G	vieg-	2.GG/	.	0r	.	0r	.
.	.	4AA/	.	.	.	.	.
.	.	2BB-/	.	.	.	.	.
.	.	2C/	.	.	.	.	.
=75-	=75	=75	=75	=75	=75	=75	=75
0G]yy	.	2GG/	-ta,	0r	.	0r	.
.	.	2.C/	mun-	.	.	.	.
.	.	4D\	.	.	.	.	.
.	.	4E-i\	.	.	.	.	.
.	.	4F\	.	.	.	.	.
=76-	=76	=76	=76	=76	=76	=76	=76
0E-i	-ne'ar-	4G\	.	0r	.	0r	.
.	.	4F\	.	.	.	.	.
.	.	4E-i\	.	.	.	.	.
.	.	4D\	.	.	.	.	.
.	.	2.C/	.	.	.	.	.
.	.	4BB-/	.	.	.	.	.
=77	=77	=77	=77	=77	=77	=77	=77
!LO:N:vis=1	!	!	!	!	!	!	!
[y0D	-m&eacute;	1D	-di,	2r	.	0r	.
.	.	.	.	2D/	pec-	.	.
.	.	1r	.	2F/	-ca-	.	.
.	.	.	.	2G/	.	.	.
=78-	=78	=78	=78	=78	=78	=78	=78
0D]yy	.	0r	.	2A/	.	0r	.
.	.	.	.	2.B-\	.	.	.
.	.	.	.	4c\	.	.	.
.	.	.	.	[2d\	.	.	.
=79-	=79	=79	=79	=79	=79	=79	=79
0G	d'un	0r	.	2d\]	.	0r	.
.	.	.	.	2c\	-ta,	.	.
.	.	.	.	2B-\	mun-	.	.
.	.	.	.	2G/	.	.	.
=80-	=80	=80	=80	=80	=80	=80	=80
!LO:N:vis=1	!	!	!	!	!	!	!
[y0A	hau-	0r	.	1F	-di,	2r	.
.	.	.	.	.	.	2A/	pec-
.	.	.	.	1r	.	2.c/	-ca-
.	.	.	.	.	.	4d/	.
=81-	=81	=81	=81	=81	=81	=81	=81
0A]yy	.	0r	.	0r	.	2e/	.
.	.	.	.	.	.	2.f/	.
.	.	.	.	.	.	4g/	.
.	.	.	.	.	.	2a/	.
=82-	=82	=82	=82	=82	=82	=82	=82
0G	-bre-	0r	.	0r	.	2d/	-ta,
.	.	.	.	.	.	2.e/	mun-
.	.	.	.	.	.	4d/	.
.	.	.	.	.	.	4c/	.
.	.	.	.	.	.	4Bni/	.
=83	=83	=83	=83	=83	=83	=83	=83
0F	-gon	0r	.	0r	.	2c/	.
.	.	.	.	.	.	1A	.
.	.	.	.	.	.	[2d/	.
=84-	=84	=84	=84	=84	=84	=84	=84
!LO:N:vis=1	!	!	!	!	!	!	!
[y0E	de	0r	.	1.G	pec-	4d/]	.
.	.	.	.	.	.	4c/	.
.	.	.	.	.	.	2c/	.
.	.	.	.	.	.	2d/	.
.	.	.	.	2C/	.	[2e/	.
=85-	=85	=85	=85	=85	=85	=85	=85
0E]yy	.	1r	.	0G	-ca-	2e/]	.
.	.	.	.	.	.	2Bni/	.
.	.	1C	pec-	.	.	2.c/	.
.	.	.	.	.	.	4B/	.
=86-	=86	=86	=86	=86	=86	=86	=86
!LO:N:vis=1	!	!	!	!	!	!	!
[y0D	fer.	0F	-ca-	0A	-ta,	1.d	.
.	.	.	.	.	.	2c/	.
=87-	=87	=87	=87	=87	=87	=87	=87
0D]yy	.	1BB-	-ta,	1r	.	1B-i	.
.	.	1F	mun-	1A	mun-	1A	.
=88-	=88	=88	=88	=88	=88	=88	=88
0r	.	0G	.	1G	.	1B-i	.
.	.	.	.	1B-	.	1G	.
=89	=89	=89	=89	=89	=89	=89	=89
!LO:N:vis=1.	!	!	!	!	!	!	!
0r	.	1A	.	1c	.	1.F	.
.	.	[1F	.	[1A	.	.	.
.	.	.	.	.	.	[2c/	.
=90-	=90	=90	=90	=90	=90	=90	=90
0ryy	.	1F]	.	2A/]	.	2c/]	.
.	.	.	.	2G/	.	2d/	.
.	.	1G	.	[1G	.	1B-i	.
=91-	=91	=91	=91	=91	=91	=91	=91
0ryy	.	0D	-di,	2G/]	.	0A	.
.	.	.	.	1F#i	.	.	.
.	.	.	.	4E/	.	.	.
.	.	.	.	4F#i/	.	.	.
=92-	=92	=92	=92	=92	=92	=92	=92
!LO:N:vis=1	!	!	!	!	!	!	!
[y0GG	L'hom-	1r	.	0G	.	[0G	-di,
.	.	[1D	do-	.	.	.	.
=93-	=93	=93	=93	=93	=93	=93	=93
0GG]yy	.	0D_	.	1.B-	.	0G]	.
.	.	.	.	2c\	.	.	.
=94-	=94	=94	=94	=94	=94	=94	=94
0GG	-me	1D]	.	0d	-di,	0r	.
.	.	1D	-na,	.	.	.	.
=95	=95	=95	=95	=95	=95	=95	=95
!LO:N:vis=1	!	!	!	!	!	!	!
[y0C	l'hom-	1E	no-	1r	.	0G	do-
.	.	1C	.	1c	do-	.	.
=96-	=96	=96	=96	=96	=96	=96	=96
0C]yy	.	[0E	.	1.c	-na,	1A	.
.	.	.	.	.	.	1G	.
.	.	.	.	4B-\	.	.	.
.	.	.	.	4A/	.	.	.
=97-	=97	=97	=97	=97	=97	=97	=97
0C	-me	0E]	.	1G	.	0c	.
.	.	.	.	1A	.	.	.
=98-	=98	=98	=98	=98	=98	=98	=98
0BB-	l'hom-	1F	-bis,	1D	no-	0d	.
.	.	1D	.	1G	.	.	.
=99-	=99	=99	=99	=99	=99	=99	=99
!LO:N:vis=1	!	!	!	!	!	!	!
[y0AA	-me'ar-	1r	.	2F/	.	1c	-na,
.	.	.	.	1A	.	.	.
.	.	1C	no-	.	.	[1c	no-
.	.	.	.	2G/	.	.	.
=100-	=100	=100	=100	=100	=100	=100	=100
0AA]yy	.	1.C	-bis,	2.E/	.	1c]	.
.	.	.	.	4D/	.	.	.
.	.	.	.	1F	.	1A	-bis,
.	.	4BB-/	.	.	.	.	.
.	.	4C/	.	.	.	.	.
=101	=101	=101	=101	=101	=101	=101	=101
!LO:N:vis=1.	!	!	!	!	!	!	!
[y0GG	-m&eacute;,	1D	.	0G	-bis,	1.B-i	pa-
.	.	1E	.	.	.	.	.
.	.	.	.	.	.	2c/	.
=102-	=102	=102	=102	=102	=102	=102	=102
0GG_yy	.	2D\	pa-	0B-	pa-	2d/	.
.	.	1G	.	.	.	4c/	.
.	.	.	.	.	.	4d/	.
.	.	.	.	.	.	2e-i/	.
.	.	2F\	.	.	.	[2d/	.
=103-	=103	=103	=103	=103	=103	=103	=103
0GG]yy	.	2G\	.	0d	-cem,	2d/]	.
.	.	2E\	.	.	.	2c/	.
.	.	1G	.	.	.	1B-i	.
=104-	=104	=104	=104	=104	=104	=104	=104
0D	l'hom-	0F	-cem,	1r	.	0A	-cem,
.	.	.	.	[1d	do-	.	.
=105-	=105	=105	=105	=105	=105	=105	=105
0D	-me'ar-	1A	do-	1d]	.	1r	.
.	.	1F	-na,	1d	-na	1a	do-
=106-	=106	=106	=106	=106	=106	=106	=106
0GG	-m&eacute;,	0G	no-	1d	no-	1.b-	.
.	.	.	.	1B-	.	.	.
.	.	.	.	.	.	4a/	.
.	.	.	.	.	.	4g/	.
=107	=107	=107	=107	=107	=107	=107	=107
0r	.	0D	-bis,	[0A	.	1.f	.
.	.	.	.	.	.	2d/	.
=108-	=108	=108	=108	=108	=108	=108	=108
0D	l'hom-	1r	.	0A]	.	1.f	.
.	.	[1F	do-	.	.	.	.
.	.	.	.	.	.	2g/	.
=109-	=109	=109	=109	=109	=109	=109	=109
0D	-me'ar-	1F]	.	0F	-bis	1a	-na,
.	.	1BB-	-na	.	.	[1b-	no-
=110-	=110	=110	=110	=110	=110	=110	=110
0D	-m&eacute;	0F	no-	0r	.	1b-]	.
.	.	.	.	.	.	[1a	.
=111-	=111	=111	=111	=111	=111	=111	=111
!LO:N:vis=1	!	!	!	!	!	!	!
[y0C	doibt	0E	-bis	[0c	do-	1a]	.
.	.	.	.	.	.	1g	.
=112-	=112	=112	=112	=112	=112	=112	=112
0C]yy	.	1r	.	0c]	.	0e	-bis,
.	.	1G	do-	.	.	.	.
=113	=113	=113	=113	=113	=113	=113	=113
0BB-	en	0G	-na	0d	.	1d	do-
.	.	.	.	.	.	1g	.
=114-	=114	=114	=114	=114	=114	=114	=114
!LO:N:vis=1	!	!	!	!	!	!	!
[y0AA	doub-	0A	no-	1c	.	1f	.
.	.	.	.	1A	.	[1a	.
=115-	=115	=115	=115	=115	=115	=115	=115
0AA]yy	.	1F	.	1c	.	1a]	.
.	.	1E	.	[1e	.	1cc	.
=116-	=116	=116	=116	=116	=116	=116	=116
0GG	-ter,	0G	.	2e\]	.	0b-	-na
.	.	.	.	2d\	.	.	.
.	.	.	.	[1d	.	.	.
=117-	=117	=117	=117	=117	=117	=117	=117
0D	pa-	1.F	.	1d]	.	1a	no-
.	.	.	.	1B-	-na	[1f	.
.	.	2G\	.	.	.	.	.
=118-	=118	=118	=118	=118	=118	=118	=118
1F	.	1A	.	1A	no-	2f/]	.
.	.	.	.	.	.	2d/	.
1G	.	1B-	.	[1d	.	1d	-bis
=119	=119	=119	=119	=119	=119	=119	=119
0C	.	0G	-bis	1d]	.	2r	.
.	.	.	.	.	.	1g	pa-
.	.	.	.	1c	-bis	.	.
.	.	.	.	.	.	2e/	.
=120-	=120	=120	=120	=120	=120	=120	=120
0D	.	1.A	pa-	1d	pa-	1f	.
.	.	.	.	1f	.	[1a	.
.	.	2B-\	.	.	.	.	.
=121-	=121	=121	=121	=121	=121	=121	=121
1C	.	1c	.	2.e\	.	2a/]	.
.	.	.	.	.	.	2g/	.
.	.	.	.	4c\	.	.	.
1G	.	1B-	.	2d\	.	[1g	.
.	.	.	.	[2e\	.	.	.
=122-	=122	=122	=122	=122	=122	=122	=122
1B-	.	1G	.	4e\]	.	1g]	.
.	.	.	.	4d\	.	.	.
.	.	.	.	2d\	.	.	.
!LO:N:vis=2	!	!	!	!	!	!	!
[y1A	.	[1c	.	2e\	.	1a	.
.	.	.	.	[2f\	.	.	.
=123-	=123	=123	=123	=123	=123	=123	=123
1A]yy	.	1c]	.	2f\]	.	1cc	.
.	.	.	.	2e\	.	.	.
1G	-cem,	[1d	.	1g	.	1b-	.
=124-	=124	=124	=124	=124	=124	=124	=124
1r	.	1d]	.	2f\	.	2a/	.
.	.	.	.	2d\	.	2f/	.
1C	pa-	1c	.	1e-i	-cem,	1g	-cem,
=125	=125	=125	=125	=125	=125	=125	=125
1.D	.	1A	-cem,	1d	pa-	2r	.
.	.	.	.	.	.	1f	pa-
.	.	1r	.	1B-	.	.	.
!LO:N:vis=4.	!	!	!	!	!	!	!
[y2E-\	.	.	.	.	.	[2g/	.
=126-	=126	=126	=126	=126	=126	=126	=126
1E-]yy	.	1G	pa-	1c	.	2g/]	.
.	.	.	.	.	.	2eni/	.
1D	.	1A	.	[1d	.	1f	.
=127-	=127	=127	=127	=127	=127	=127	=127
2BB-/	.	2D\	.	2d\]	.	2g/	.
1AA	.	2E\	.	2c\	.	2.a/	.
.	.	2F\	.	2A/	.	.	.
.	.	.	.	.	.	8g/L	.
.	.	.	.	.	.	8f/J	.
2GG/	.	2G\	.	2B-\	.	4e/	.
.	.	.	.	.	.	4d/	.
=128-	=128	=128	=128	=128	=128	=128	=128
2.D\	.	1.A	.	2A/	.	2f/	.
.	.	.	.	1d	.	2g/	.
4E\	.	.	.	.	.	.	.
2F\	.	.	.	.	.	2a/	.
2G\	-cem,	2G\	.	2B-\	.	2b-\	.
=129-	=129	=129	=129	=129	=129	=129	=129
2r	.	2F\	.	2A/	.	1cc	.
2F\	pa-	2A\	.	2f\	.	.	.
2G\	.	2G\	.	2e\	.	2b-\	.
2D\	.	[2d\	.	[2f\	.	[2a/	.
=130-	=130	=130	=130	=130	=130	=130	=130
2F\	.	4d\]	.	4f\]	.	2a/]	.
.	.	4c\	.	4e\	.	.	.
2G\	.	2B-\	.	2d\	.	1g	.
1D	.	1A	.	2.d\	.	.	.
.	.	.	.	.	.	2f#i/	.
.	.	.	.	4c\	.	.	.
=131	=131	=131	=131	=131	=131	=131	=131
!LO:N:vis=00	!	!	!	!	!	!	!
[0GGl	-cem.	[0Gl	-cem.	0d	.	[0gl	-cem.
=132-	=132	=132	=132	=132	=132	=132	=132
0GG]	.	0G]	.	0dl	-cem.	0g]	.
*rscale:1	*	*	*	*	*	*	*
==	==	==	==	==	==	==	==
*-	*-	*-	*-	*-	*-	*-	*-
!!!RDF**kern: l=long note in original notation
!!!RDF**kern: i=editorial accidental
!!!RDF**kern: V=start of tuplet marker
!!!RDF**kern: Z=end of tuplet marker
!!!ENC:	Jesse Rodin
!!!END:	<2012///
!!!EED:	Jesse Rodin
!!!EEV:	2012/06/25/
!!!ONB:	Translated from MusicXML and edited on 2012/06/24/ by Craig Sapp
!!muse2ps: T^@{OPR}^u^@{ONM}{. }@{OTL}^C^@{COM}^i2I150v85,85,85,130Q16
